X:1
T:Title
%%score { 1 | ( 2 3 ) }
L:1/8
M:4/4
K:Bb
V:1 treble nm="Grand Piano"
V:2 bass 
V:3 bass 
V:1
 z4 z2[Q:1/4=100] [B,D][CE] | [DF][DF][_D=E][=DF] [DB]2 [DF][DF] |[M:9/8] AG^F G B2- BAG | %3
[M:4/4] [DG][DF][_D=E][=DF] [_EG][DF][CE]B, |[M:5/4] C2 F6 D[CE] | %5
[M:4/4] [DF][DF][_D=E][=DF] [DB]2 [DF][DF] |[M:9/8] AG^F G B2- BAG |[M:1/4] GF |[M:3/4] =EF GF GA | %9
[M:4/4] [DB]6 z2 | [DB]3 [FA] [FA]G z2 |[M:17/16] B/-B/-B-<BG[EG][DF]3/2[B,D][CE] | %12
[M:4/4] [DF][DF] [DF]<[DF] [EG][DF]AB | c6 D[CE] | [DF][DF][_D=E][=DF] [DB]2 [DF][DF] | %15
[M:9/8] AG^F G B2- BAG |[M:1/4] G/F z/ |[M:3/4] =EF GF GA |[M:8/4] [DB]8 z8 |] %19
V:2
 z4 z2 [B,,F,][B,,F,] | [B,,B,][B,,B,][B,,B,][B,,B,] [B,,F,]2 [B,,B,][B,,B,] | %2
[M:9/8] [E,B,E][E,B,E][E,A,E] [E,B,E] [E,G,E]2- [E,G,E][E,B,E][E,B,E] | %3
[M:4/4] [B,,B,][B,,B,][B,,B,][B,,B,] [B,,B,][B,,B,][B,,F,][B,,F,] | %4
[M:5/4] A,2 [A,C]6 [B,,F,B,][B,,F,] |[M:4/4] [B,,B,][B,,B,][B,,B,][B,,B,] [B,,F,]2 [B,,B,][B,,B,] | %6
[M:9/8] [E,B,E][E,B,E][E,A,E] [E,B,E] [E,G,E]2- [E,G,E][E,B,E][E,B,E] |[M:1/4] [F,B,D][F,B,D] | %8
[M:3/4] [F,B,_D][F,B,=D] [F,A,E][F,A,E] [F,B,E][F,CE] |[M:4/4] [B,,B,]6 z2 | %10
 [B,,F,]3 [D,B,] [E,B,][E,B,E] z2 | %11
[M:17/16] [E,G,E]/-[E,G,E]/-[E,G,E]-<[E,G,E][E,B,E][B,,B,][B,,B,]3/2[B,,F,][B,,F,] | %12
[M:4/4] [B,,B,][B,,B,] [B,,B,]<[B,,B,] [B,,B,][B,,B,][F,CE][G,B,D] | [F,A,E]6 [B,,F,B,][B,,F,] | %14
 [B,,B,][B,,B,][B,,B,][B,,B,] [B,,F,]2 [B,,B,][B,,B,] | %15
[M:9/8] [E,B,E][E,B,E][E,A,E] [E,B,E] [=E,G,_D]2- [E,G,D][E,B,D][E,B,D] | %16
[M:1/4] [F,B,D]/[F,B,D] z/ |[M:3/4] [F,B,_D][F,B,=D] [F,A,E][F,A,E] [F,B,E][F,CE] | %18
[M:8/4] [B,,B,]8 z8 |] %19
V:3
 x8 | x8 |[M:9/8] x9 |[M:4/4] x8 |[M:5/4] F,2- F,4- F,3/2 z/ z2 |[M:4/4] x8 |[M:9/8] x9 | %7
[M:1/4] x2 |[M:3/4] x6 |[M:4/4] x8 | x8 |[M:17/16] x17/2 |[M:4/4] x8 | x8 | x8 |[M:9/8] x9 | %16
[M:1/4] x2 |[M:3/4] x6 |[M:8/4] x16 |] %19

